packages/icons/src/svg/Person.svg

<svg width="20" height="20" viewBox="0 0 20 20" fill="none" xmlns="http://www.w3.org/2000/svg">
<path fill-rule="evenodd" clip-rule="evenodd" d="M10.2501 2.0498C9.74254 2.0498 9.2399 2.14979 8.77093 2.34404C8.30196 2.53829 7.87584 2.82302 7.51691 3.18195C7.15798 3.54088 6.87325 3.967 6.679 4.43597C6.48475 4.90494 6.38477 5.40758 6.38477 5.91519C6.38477 6.4228 6.48475 6.92544 6.679 7.39441C6.87325 7.86338 7.15798 8.28949 7.51691 8.64843C7.87584 9.00736 8.30196 9.29209 8.77093 9.48634C9.2399 9.68059 9.74254 9.78057 10.2501 9.78057C10.7578 9.78057 11.2604 9.68059 11.7294 9.48634C12.1983 9.29208 12.6245 9.00736 12.9834 8.64843C13.3423 8.28949 13.627 7.86338 13.8213 7.39441C14.0156 6.92544 14.1155 6.4228 14.1155 5.91519C14.1155 5.40758 14.0156 4.90494 13.8213 4.43597C13.627 3.967 13.3423 3.54088 12.9834 3.18195C12.6245 2.82302 12.1983 2.53829 11.7294 2.34404C11.2604 2.14979 10.7578 2.0498 10.2501 2.0498ZM9.34496 3.72986C9.63194 3.61099 9.93952 3.5498 10.2501 3.5498C10.5608 3.5498 10.8684 3.61099 11.1553 3.72986C11.4423 3.84873 11.7031 4.02296 11.9227 4.24261C12.1424 4.46226 12.3166 4.72301 12.4355 5.01C12.5544 5.29698 12.6155 5.60456 12.6155 5.91519C12.6155 6.22582 12.5544 6.5334 12.4355 6.82038C12.3166 7.10736 12.1424 7.36812 11.9227 7.58777C11.7031 7.80742 11.4423 7.98165 11.1553 8.10052C10.8684 8.21939 10.5608 8.28057 10.2501 8.28057C9.93952 8.28057 9.63194 8.21939 9.34496 8.10052C9.05798 7.98165 8.79722 7.80742 8.57757 7.58777C8.35792 7.36812 8.18369 7.10736 8.06482 6.82038C7.94595 6.5334 7.88477 6.22582 7.88477 5.91519C7.88477 5.60456 7.94595 5.29698 8.06482 5.01C8.18369 4.72301 8.35792 4.46226 8.57757 4.24261C8.79722 4.02296 9.05797 3.84873 9.34496 3.72986Z" fill="currentColor"/>
<path fill-rule="evenodd" clip-rule="evenodd" d="M9.83935 10.7312C9.8512 10.7307 9.86306 10.7305 9.87491 10.7305H10.6247C10.6384 10.7305 10.652 10.7308 10.6655 10.7314C11.7943 10.7771 12.8913 11.0775 13.8525 11.6041C14.8151 12.1314 15.6096 12.8682 16.1604 13.7443C16.7113 14.6203 17.0003 15.6068 17 16.6097V17.2981C17 17.6856 16.6456 17.9997 16.2084 17.9997H10.6251L10.6201 17.9997H4.29163C3.85443 17.9997 3.5 17.6856 3.5 17.2981V16.6097C3.4997 15.6068 3.7887 14.6203 4.33955 13.7443C4.89044 12.8682 5.68491 12.1314 6.64751 11.6041C7.6101 11.0767 8.70884 10.7762 9.83935 10.7312ZM9.89335 12.1337H10.6063C11.4613 12.1703 12.2918 12.3987 13.02 12.7977C13.753 13.1992 14.358 13.7602 14.7774 14.4274C15.1946 15.0907 15.4145 15.8372 15.4167 16.5965H10.6296L10.6247 16.5965H5.08328C5.08548 15.8372 5.30542 15.0907 5.72255 14.4273C6.14204 13.7602 6.747 13.1992 7.47999 12.7977C8.20811 12.3988 9.03853 12.1703 9.89335 12.1337ZM5.08326 16.6066L5.08328 16.5965C5.08327 16.5998 5.08327 16.6032 5.08326 16.6066ZM15.4167 16.6066C15.4167 16.6032 15.4167 16.5999 15.4167 16.5965L15.4167 16.6066Z" fill="currentColor"/>
</svg>

<svg xmlns="http://www.w3.org/2000/svg" width="20" height="20" fill="currentColor" viewBox="0 0 20 20">
  <path fill-rule="evenodd" d="M10.25 2.05a3.865 3.865 0 1 0 0 7.73 3.865 3.865 0 0 0 0-7.73Zm-.905 1.68a2.365 2.365 0 1 1 1.81 4.37 2.365 2.365 0 0 1-1.81-4.37Zm.495 7.001h.824a7.258 7.258 0 0 1 3.188.873 6.263 6.263 0 0 1 2.307 2.14c.551.876.84 1.863.84 2.866v.688c0 .388-.354.702-.792.702H4.292c-.438 0-.792-.314-.792-.702v-.688c0-1.003.289-1.99.84-2.866a6.264 6.264 0 0 1 2.308-2.14 7.257 7.257 0 0 1 3.191-.873Zm.053 1.403h.713a5.525 5.525 0 0 1 2.414.664 4.768 4.768 0 0 1 1.757 1.63c.418.663.638 1.41.64 2.168H5.083a4.09 4.09 0 0 1 .64-2.169 4.77 4.77 0 0 1 1.757-1.63 5.525 5.525 0 0 1 2.413-.663Zm-4.81 4.473v-.01.01Zm10.334 0v-.01.01Z" clip-rule="evenodd"/>
</svg>
